img/icon-no.svg

<svg width="38" height="39" viewBox="0 0 38 39" fill="none" xmlns="http://www.w3.org/2000/svg">
<path d="M0 19.4099C0 23.2251 1.11433 26.9546 3.20208 30.1268C5.28982 33.299 8.25722 35.7715 11.729 37.2315C15.2008 38.6915 19.0211 39.0735 22.7067 38.3292C26.3923 37.5849 29.7778 35.7477 32.435 33.05C35.0922 30.3522 36.9018 26.9151 37.6349 23.1732C38.368 19.4313 37.9918 15.5527 36.5537 12.0279C35.1156 8.50317 32.6804 5.49049 29.5558 3.37088C26.4313 1.25127 22.7578 0.119934 19 0.119934C13.9609 0.119934 9.12816 2.15226 5.56497 5.76983C2.00178 9.3874 0 14.2939 0 19.4099ZM31.4179 30.0883L8.48214 6.80253C11.6044 4.16393 15.5853 2.80534 19.6435 2.9934C23.7017 3.18145 27.5441 4.90258 30.4167 7.81897C33.2892 10.7354 34.9845 14.6364 35.1697 18.7566C35.355 22.8767 34.0168 26.9183 31.4179 30.0883ZM8.46857 32.031C5.18201 29.1975 3.13636 25.1564 2.78019 20.7938C2.42401 16.4313 3.78639 12.1033 6.56857 8.75908L29.4907 32.031C26.5514 34.5525 22.8277 35.9359 18.9796 35.9359C15.1316 35.9359 11.4078 34.5525 8.46857 32.031Z" fill="black"/>
</svg>

<svg xmlns="http://www.w3.org/2000/svg" width="38" height="39" fill="none"><path fill="#000" d="M0 19.41a19.5 19.5 0 0 0 3.202 10.717 19.065 19.065 0 0 0 8.527 7.104 18.735 18.735 0 0 0 10.978 1.098 18.914 18.914 0 0 0 9.728-5.279 19.383 19.383 0 0 0 5.2-9.877c.733-3.742.357-7.62-1.081-11.145a19.23 19.23 0 0 0-6.998-8.657A18.797 18.797 0 0 0 19 .12c-5.04 0-9.872 2.032-13.435 5.65C2.002 9.387 0 14.294 0 19.41Zm31.418 10.678L8.482 6.803a16.13 16.13 0 0 1 11.162-3.81c4.058.188 7.9 1.91 10.773 4.826a16.653 16.653 0 0 1 4.753 10.938 16.697 16.697 0 0 1-3.752 11.331Zm-22.95 1.943A16.618 16.618 0 0 1 2.78 20.794 16.701 16.701 0 0 1 6.57 8.759L29.49 32.031a16.14 16.14 0 0 1-10.511 3.905A16.14 16.14 0 0 1 8.469 32.03Z"/></svg>
